; generated by Slic3r 1.1.7 on 2014-12-08 at 14:05:40

; perimeters extrusion width = 0.50mm
; infill extrusion width = 0.52mm
; solid infill extrusion width = 0.52mm
; top infill extrusion width = 0.52mm

G21 ; set units to millimeters
M107
M104 S200 ; set temperature
G28 ; home all axes
G1 Z5 F5000 ; lift nozzle

M109 S200 ; wait for temperature to be reached
G90 ; use absolute coordinates
G92 E0
M82 ; use absolute distances for extrusion
G1 F1800.000 E-1.00000
G92 E0
G1 Z0.350 F7800.000
G1 X79.608 Y64.779 F7800.000
G1 E1.00000 F1800.000
G1 X80.322 Y63.934 E1.03599 F1080.000
G1 X80.804 Y63.416 E1.05902
G1 X81.905 Y62.357 E1.10872
G1 X82.639 Y61.736 E1.13999
G1 X84.134 Y60.546 E1.20217
G1 X85.049 Y59.870 E1.23918
G1 X86.030 Y59.233 E1.27723
G1 X87.039 Y58.663 E1.31494
G1 X88.097 Y58.148 E1.35322
G1 X89.204 Y57.689 E1.39221
G1 X90.328 Y57.302 E1.43088
G1 X91.499 Y56.974 E1.47045
G1 X92.700 Y56.713 E1.51044
G1 X93.925 Y56.519 E1.55079
G1 X95.163 Y56.392 E1.59128
G1 X96.441 Y56.328 E1.63292
G1 X101.511 Y56.324 E1.79785
G1 X102.824 Y56.339 E1.84058 F1080.000
G1 X104.096 Y56.421 E1.88205
G1 X105.356 Y56.570 E1.92333
G1 X106.590 Y56.787 E1.96410
G1 X109.051 Y57.348 E2.04624
G1 X110.249 Y57.681 E2.08666
G1 X110.645 Y57.807 E2.10020
G1 X111.785 Y58.226 E2.13971
G1 X112.876 Y58.704 E2.17846
G1 X113.917 Y59.239 E2.21655
G1 X114.930 Y59.840 E2.25486
G1 X115.877 Y60.485 E2.29216
G1 X116.781 Y61.182 E2.32928
G1 X117.322 Y61.645 E2.35246
G1 X118.426 Y62.701 E2.40216
G1 X119.171 Y63.519 E2.43815
G1 X119.858 Y64.362 E2.47352
G1 X120.500 Y65.241 E2.50894
G1 X121.081 Y66.131 E2.54353
G1 X121.614 Y67.041 E2.57783
G1 X122.086 Y67.938 E2.61083
G1 X122.860 Y69.546 E2.66887
G1 X123.298 Y70.488 E2.70267
G1 X123.695 Y71.450 E2.73656
G1 X124.047 Y72.417 E2.77002
G1 X124.358 Y73.396 E2.80343
G1 X124.621 Y74.349 E2.83561
G1 X129.950 Y96.208 E3.56763
G1 X130.118 Y98.316 E3.63642
G1 X129.057 Y111.577 E4.06925
G1 X128.850 Y112.773 E4.10875
G1 X125.667 Y124.621 E4.50789
G1 X125.236 Y125.782 E4.54817
G1 X124.483 Y127.346 E4.60465
G1 X123.246 Y129.111 E4.67476
G1 X122.353 Y130.007 E4.71592
G1 X110.915 Y140.377 E5.21824
G1 X107.925 Y141.935 E5.32796
G1 X105.475 Y142.449 E5.40940
G1 X94.597 Y143.637 E5.76542
G1 X92.302 Y143.488 E5.84022
G1 X89.724 Y142.224 E5.93366
G1 X87.728 Y140.561 E6.01818
G1 X75.973 Y128.386 E6.56880
G1 X74.333 Y125.489 E6.67710
G1 X71.150 Y113.641 E7.07625
G1 X70.943 Y112.445 E7.11574
G1 X69.861 Y98.653 E7.56585
G1 X69.861 Y96.917 E7.62233
G1 X70.050 Y95.340 E7.67400
G1 X75.436 Y73.264 E8.41333
G1 X75.719 Y72.272 E8.44688
G1 X76.043 Y71.291 E8.48047
G1 X76.411 Y70.313 E8.51450
G1 X76.821 Y69.353 E8.54847
G1 X77.284 Y68.392 E8.58317
G1 X77.788 Y67.462 E8.61757
G1 X78.340 Y66.550 E8.65227
G1 X78.951 Y65.647 E8.68775
G1 X79.563 Y64.839 E8.72071
G1 F1800.000 E7.72071
G92 E0
G1 X105.721 Y125.397 F7800.000
G1 E1.00000 F1800.000
G1 X105.912 Y126.131 E1.02470 F378.000
G1 X106.190 Y127.367 E1.06591
G1 X106.296 Y127.947 E1.08508
G1 X106.430 Y129.047 E1.12113
G1 X106.457 Y129.579 E1.13848
G1 X106.454 Y130.105 E1.15558
G1 X106.422 Y130.630 E1.17270
G1 X106.356 Y131.160 E1.19007
G1 X106.259 Y131.695 E1.20777
G1 X106.127 Y132.244 E1.22613
G1 X105.962 Y132.810 E1.24532
G1 X105.760 Y133.398 E1.26555
G1 X105.386 Y134.362 E1.29919
G1 X104.375 Y133.870 E1.33578
G1 X103.746 Y133.513 E1.35929
G1 X103.165 Y133.132 E1.38191
G1 X102.631 Y132.732 E1.40363
G1 X102.142 Y132.316 E1.42450
G1 X101.695 Y131.891 E1.44457
G1 X101.290 Y131.458 E1.46385
G1 X100.924 Y131.022 E1.48237
G1 X100.595 Y130.586 E1.50015
G1 X100.299 Y130.154 E1.51719
G1 X99.830 Y129.357 E1.54726
G1 X99.618 Y130.234 E1.57659
G1 X99.382 Y130.943 E1.60091
G1 X99.079 Y131.599 E1.62443
G1 X98.722 Y132.200 E1.64716
G1 X98.321 Y132.744 E1.66915
G1 X97.888 Y133.234 E1.69043
G1 X97.432 Y133.672 E1.71100
G1 X96.962 Y134.059 E1.73080
G1 X96.491 Y134.395 E1.74965
G1 X96.027 Y134.685 E1.76745
G1 X95.578 Y134.930 E1.78409
G1 X95.154 Y135.130 E1.79931
G1 X94.766 Y135.287 E1.81295
G1 X94.102 Y135.512 E1.83575
G1 X93.759 Y134.523 E1.86979
G1 X93.569 Y133.870 E1.89195
G1 X93.416 Y133.228 E1.91341
G1 X93.305 Y132.596 E1.93430
G1 X93.232 Y131.970 E1.95478
G1 X93.200 Y131.350 E1.97499
G1 X93.207 Y130.735 E1.99501
G1 X93.254 Y130.120 E2.01508
G1 X93.339 Y129.505 E2.03525
G1 X93.463 Y128.889 E2.05570
G1 X93.625 Y128.269 E2.07657
G1 X93.824 Y127.643 E2.09794
G1 X94.061 Y127.008 E2.11999
G1 X94.449 Y126.087 E2.15250
G1 X93.664 Y126.415 E2.18019
G1 X92.751 Y126.719 E2.21149
G1 X91.841 Y126.922 E2.24185
G1 X90.937 Y127.027 E2.27146
G1 X90.037 Y127.040 E2.30073
G1 X89.159 Y126.964 E2.32939
G1 X88.295 Y126.805 E2.35798
G1 X87.159 Y126.488 E2.39636
G1 X87.159 Y126.512 E2.39716
G1 X85.828 Y125.880 E2.44511
G1 X85.058 Y125.438 E2.47399
G1 X84.318 Y124.938 E2.50305
G1 X83.611 Y124.383 E2.53229
G1 X82.940 Y123.780 E2.56165
G1 X81.786 Y122.598 E2.61538
G1 X83.623 Y122.468 E2.67529
G1 X84.624 Y122.354 E2.70807
G1 X85.556 Y122.201 E2.73880
G1 X86.423 Y122.010 E2.76770
G1 X87.230 Y121.779 E2.79502
G1 X87.985 Y121.507 E2.82110
G1 X88.689 Y121.194 E2.84618
G1 X89.351 Y120.840 E2.87061
G1 X89.976 Y120.442 E2.89472
G1 X90.570 Y119.999 E2.91882
G1 X91.139 Y119.512 E2.94320
G1 X91.686 Y118.976 E2.96810
G1 X92.218 Y118.391 E2.99383
G1 X92.739 Y117.757 E3.02053
G1 X93.319 Y116.985 E3.05195
G1 X92.512 Y117.076 E3.07837
G1 X91.027 Y117.179 E3.12680
G1 X89.648 Y117.187 E3.17167
G1 X88.370 Y117.106 E3.21334
G1 X87.768 Y117.035 E3.23308
G1 X86.631 Y116.830 E3.27065
G1 X85.583 Y116.550 E3.30595
G1 X84.619 Y116.199 E3.33933
G1 X83.732 Y115.784 E3.37118
G1 X83.314 Y115.551 E3.38676
G1 X82.541 Y115.052 E3.41670
G1 X81.830 Y114.502 E3.44593
G1 X81.181 Y113.909 E3.47454
G1 X80.587 Y113.278 E3.50272
G1 X80.044 Y112.618 E3.53052
G1 X79.545 Y111.934 E3.55808
G1 X79.013 Y111.123 E3.58963
G1 X79.377 Y110.670 E3.60853
G1 X80.032 Y110.918 E3.63132
G1 X80.552 Y111.079 E3.64904
G1 X81.074 Y111.209 E3.66654
G1 X81.596 Y111.308 E3.68382
G1 X82.119 Y111.378 E3.70100
G1 X82.643 Y111.420 E3.71809
G1 X83.164 Y111.437 E3.73506
G1 X84.202 Y111.394 E3.76886
G1 X85.225 Y111.263 E3.80242
G1 X85.726 Y111.167 E3.81900
G1 X86.718 Y110.920 E3.85226
G1 X87.673 Y110.611 E3.88493
G1 X88.591 Y110.251 E3.91700
G1 X89.460 Y109.851 E3.94814
G1 X90.275 Y109.422 E3.97810
G1 X91.030 Y108.976 E4.00662
G1 X91.974 Y108.336 E4.04373
G1 X91.853 Y107.972 E4.05622
G1 X90.861 Y107.956 E4.08851
G1 X90.192 Y107.905 E4.11033
G1 X89.531 Y107.826 E4.13200
G1 X88.875 Y107.718 E4.15361
G1 X88.228 Y107.584 E4.17510
G1 X87.591 Y107.423 E4.19649
G1 X86.964 Y107.236 E4.21777
G1 X86.349 Y107.023 E4.23896
G1 X85.745 Y106.786 E4.26005
G1 X85.156 Y106.526 E4.28101
G1 X84.580 Y106.241 E4.30191
G1 X84.021 Y105.934 E4.32267
G1 X83.478 Y105.604 E4.34334
G1 X82.953 Y105.254 E4.36387
G1 X82.447 Y104.882 E4.38429
G1 X81.962 Y104.490 E4.40459
G1 X81.497 Y104.079 E4.42479
G1 X81.054 Y103.649 E4.44486
G1 X80.634 Y103.200 E4.46488
G1 X80.240 Y102.734 E4.48473
G1 X79.870 Y102.250 E4.50453
G1 X79.528 Y101.750 E4.52425
G1 X79.213 Y101.234 E4.54391
G1 X78.927 Y100.703 E4.56354
G1 X78.672 Y100.158 E4.58314
G1 X78.447 Y99.598 E4.60274
G1 X78.257 Y99.025 E4.62240
G1 X78.098 Y98.441 E4.64208
G1 X77.828 Y97.137 E4.68541
G1 X79.305 Y97.900 E4.73949
G1 X80.149 Y98.271 E4.76948
G1 X81.016 Y98.593 E4.79959
G1 X81.906 Y98.867 E4.82988
G1 X82.811 Y99.090 E4.86021
G1 X83.731 Y99.263 E4.89066
G1 X84.658 Y99.389 E4.92109
G1 X85.589 Y99.465 E4.95150
G1 X86.521 Y99.493 E4.98183
G1 X87.448 Y99.472 E5.01199
G1 X88.367 Y99.404 E5.04199
G1 X89.274 Y99.286 E5.07172
G1 X90.163 Y99.122 E5.10113
G1 X91.169 Y98.876 E5.13483
G1 X91.200 Y98.499 E5.14714
G1 X90.891 Y98.366 E5.15809
G1 X90.311 Y98.067 E5.17932
G1 X89.750 Y97.729 E5.20063
G1 X89.208 Y97.355 E5.22205
G1 X88.686 Y96.945 E5.24366
G1 X88.183 Y96.501 E5.26549
G1 X87.700 Y96.024 E5.28755
G1 X87.239 Y95.517 E5.30985
G1 X86.798 Y94.982 E5.33242
G1 X86.377 Y94.419 E5.35530
G1 X85.977 Y93.829 E5.37847
G1 X85.598 Y93.217 E5.40192
G1 X85.240 Y92.580 E5.42566
G1 X84.904 Y91.923 E5.44967
G1 X84.590 Y91.247 E5.47396
G1 X84.298 Y90.551 E5.49851
G1 X84.029 Y89.839 E5.52326
G1 X83.782 Y89.112 E5.54825
G1 X83.557 Y88.371 E5.57344
G1 X83.355 Y87.617 E5.59884
G1 X83.178 Y86.853 E5.62436
G1 X82.893 Y85.297 E5.67582
G1 X82.705 Y83.716 E5.72760
G1 X82.648 Y82.919 E5.75360
G1 X82.617 Y82.121 E5.77959
G1 X82.611 Y81.322 E5.80560
G1 X82.631 Y80.524 E5.83155
G1 X82.677 Y79.729 E5.85747
G1 X82.749 Y78.937 E5.88334
G1 X82.849 Y78.150 E5.90915
G1 X82.975 Y77.371 E5.93484
G1 X83.128 Y76.600 E5.96040
G1 X83.310 Y75.838 E5.98589
G1 X83.520 Y75.089 E6.01121
G1 X83.758 Y74.352 E6.03639
G1 X84.025 Y73.630 E6.06147
G1 X84.322 Y72.922 E6.08642
G1 X84.648 Y72.233 E6.11123
G1 X85.005 Y71.563 E6.13592
G1 X85.392 Y70.914 E6.16052
G1 X85.809 Y70.286 E6.18504
G1 X86.258 Y69.682 E6.20953
G1 X86.738 Y69.103 E6.23399
G1 X87.250 Y68.551 E6.25849
G1 X87.795 Y68.028 E6.28305
G1 X88.372 Y67.536 E6.30773
G1 X88.980 Y67.076 E6.33254
G1 X89.623 Y66.649 E6.35767
G1 X90.299 Y66.258 E6.38306
G1 X91.007 Y65.903 E6.40882
G1 X91.749 Y65.587 E6.43506
G1 X92.524 Y65.312 E6.46181
G1 X93.331 Y65.077 E6.48918
G1 X94.174 Y64.885 E6.51731
G1 X95.050 Y64.739 E6.54619
G1 X95.960 Y64.639 E6.57597
G1 X96.903 Y64.585 E6.60672
G1 X97.881 Y64.581 E6.63853
G1 X98.853 Y64.625 E6.67018
G1 X99.901 Y64.720 E6.70442
G1 X100.908 Y64.627 E6.73732
G1 X101.921 Y64.581 E6.77031
G1 X102.899 Y64.585 E6.80213
G1 X103.842 Y64.639 E6.83288
G1 X104.752 Y64.739 E6.86266
G1 X105.628 Y64.885 E6.89154
G1 X106.471 Y65.077 E6.91967
G1 X107.278 Y65.312 E6.94704
G1 X108.053 Y65.587 E6.97379
G1 X108.795 Y65.903 E7.00003
G1 X109.503 Y66.258 E7.02579
G1 X110.179 Y66.649 E7.05118
G1 X110.822 Y67.076 E7.07631
G1 X111.430 Y67.536 E7.10112
G1 X112.007 Y68.028 E7.12580
G1 X112.552 Y68.551 E7.15036
G1 X113.064 Y69.103 E7.17485
G1 X113.544 Y69.682 E7.19932
G1 X113.993 Y70.286 E7.22381
G1 X114.410 Y70.914 E7.24833
G1 X114.797 Y71.563 E7.27293
G1 X115.154 Y72.233 E7.29762
G1 X115.480 Y72.922 E7.32243
G1 X115.777 Y73.630 E7.34738
G1 X116.044 Y74.352 E7.37246
G1 X116.282 Y75.089 E7.39764
G1 X116.492 Y75.838 E7.42296
G1 X116.674 Y76.600 E7.44844
G1 X116.828 Y77.371 E7.47402
G1 X116.953 Y78.150 E7.49970
G1 X117.053 Y78.937 E7.52551
G1 X117.125 Y79.729 E7.55138
G1 X117.171 Y80.525 E7.57730
G1 X117.191 Y81.322 E7.60325
G1 X117.185 Y82.121 E7.62926
G1 X117.154 Y82.919 E7.65525
G1 X117.097 Y83.716 E7.68125
G1 X116.909 Y85.297 E7.73303
G1 X116.624 Y86.853 E7.78449
G1 X116.447 Y87.617 E7.81002
G1 X116.245 Y88.371 E7.83541
G1 X116.020 Y89.112 E7.86060
G1 X115.773 Y89.839 E7.88559
G1 X115.504 Y90.551 E7.91034
G1 X115.212 Y91.247 E7.93489
G1 X114.898 Y91.924 E7.95918
G1 X114.562 Y92.580 E7.98319
G1 X114.204 Y93.217 E8.00693
G1 X113.825 Y93.829 E8.03038
G1 X113.425 Y94.419 E8.05355
G1 X113.004 Y94.982 E8.07643
G1 X112.563 Y95.517 E8.09900
G1 X112.102 Y96.024 E8.12130
G1 X111.619 Y96.501 E8.14336
G1 X111.116 Y96.945 E8.16519
G1 X110.594 Y97.355 E8.18680
G1 X110.052 Y97.729 E8.20822
G1 X109.491 Y98.067 E8.22953
G1 X108.911 Y98.366 E8.25076
G1 X108.602 Y98.499 E8.26171
G1 X108.633 Y98.876 E8.27402
G1 X109.639 Y99.122 E8.30772
G1 X110.528 Y99.286 E8.33713
G1 X111.435 Y99.404 E8.36686
G1 X112.354 Y99.472 E8.39686
G1 X113.281 Y99.493 E8.42702
G1 X114.213 Y99.465 E8.45735
G1 X115.144 Y99.389 E8.48776
G1 X116.071 Y99.263 E8.51819
G1 X116.991 Y99.090 E8.54864
G1 X117.896 Y98.867 E8.57897
G1 X118.786 Y98.593 E8.60926
G1 X119.654 Y98.271 E8.63937
G1 X120.497 Y97.900 E8.66936
G1 X121.974 Y97.137 E8.72343
G1 X121.704 Y98.441 E8.76677
G1 X121.545 Y99.025 E8.78645
G1 X121.355 Y99.599 E8.80611
G1 X121.130 Y100.158 E8.82571
G1 X120.875 Y100.703 E8.84531
G1 X120.589 Y101.234 E8.86494
G1 X120.274 Y101.750 E8.88460
G1 X119.932 Y102.250 E8.90432
G1 X119.562 Y102.734 E8.92412
G1 X119.168 Y103.200 E8.94397
G1 X118.748 Y103.649 E8.96399
G1 X118.305 Y104.079 E8.98406
G1 X117.840 Y104.490 E9.00426
G1 X117.355 Y104.882 E9.02456
G1 X116.849 Y105.254 E9.04498
G1 X116.324 Y105.604 E9.06551
G1 X115.781 Y105.934 E9.08618
G1 X115.222 Y106.241 E9.10694
G1 X114.646 Y106.526 E9.12783
G1 X114.057 Y106.786 E9.14880
G1 X113.453 Y107.023 E9.16989
G1 X112.838 Y107.236 E9.19107
G1 X112.211 Y107.423 E9.21236
G1 X111.574 Y107.584 E9.23375
G1 X110.927 Y107.718 E9.25524
G1 X110.271 Y107.826 E9.27685
G1 X109.610 Y107.905 E9.29852
G1 X108.941 Y107.956 E9.32034
G1 X107.949 Y107.972 E9.35263
G1 X107.828 Y108.336 E9.36512
G1 X108.772 Y108.976 E9.40223
G1 X109.527 Y109.422 E9.43075
G1 X110.342 Y109.851 E9.46071
G1 X111.211 Y110.251 E9.49185
G1 X112.129 Y110.611 E9.52392
G1 X113.084 Y110.920 E9.55659
G1 X114.076 Y111.167 E9.58985
G1 X114.577 Y111.263 E9.60643
G1 X115.600 Y111.394 E9.63999
G1 X116.117 Y111.427 E9.65686
G1 X116.638 Y111.437 E9.67379
G1 X117.159 Y111.420 E9.69077
G1 X117.683 Y111.378 E9.70786
G1 X118.206 Y111.308 E9.72504
G1 X118.728 Y111.209 E9.74232
G1 X119.250 Y111.079 E9.75982
G1 X119.770 Y110.918 E9.77754
G1 X120.425 Y110.670 E9.80033
G1 X120.789 Y111.123 E9.81923
G1 X120.257 Y111.934 E9.85078
G1 X119.758 Y112.618 E9.87834
G1 X119.215 Y113.278 E9.90614
G1 X118.621 Y113.909 E9.93432
G1 X117.972 Y114.502 E9.96293
G1 X117.261 Y115.052 E9.99215
G1 X116.488 Y115.551 E10.02210
G1 X115.636 Y115.999 E10.05343
G1 X114.712 Y116.383 E10.08598
G1 X114.219 Y116.550 E10.10291
G1 X113.171 Y116.830 E10.13820
G1 X112.614 Y116.941 E10.15668
G1 X112.034 Y117.035 E10.17578
G1 X110.805 Y117.157 E10.21598
G1 X110.126 Y117.187 E10.23810
G1 X108.775 Y117.179 E10.28206
G1 X107.290 Y117.076 E10.33049
G1 X106.483 Y116.985 E10.35691
G1 X107.063 Y117.757 E10.38833
G1 X107.584 Y118.391 E10.41503
G1 X108.116 Y118.976 E10.44076
G1 X108.663 Y119.512 E10.46566
G1 X109.232 Y119.999 E10.49004
G1 X109.826 Y120.442 E10.51414
G1 X110.451 Y120.840 E10.53825
G1 X111.113 Y121.194 E10.56268
G1 X111.817 Y121.507 E10.58776
G1 X112.572 Y121.779 E10.61384
G1 X113.379 Y122.010 E10.64116
G1 X114.246 Y122.201 E10.67006
G1 X115.178 Y122.354 E10.70079
G1 X116.179 Y122.468 E10.73357
G1 X118.017 Y122.598 E10.79350
G1 X116.877 Y123.764 E10.84655
G1 X116.245 Y124.327 E10.87409
G1 X115.598 Y124.820 E10.90053
G1 X114.933 Y125.241 E10.92615
G1 X114.250 Y125.593 E10.95115
G1 X113.793 Y125.776 E10.96717
G1 X113.793 Y125.803 E10.96804
G1 X112.819 Y126.089 E11.00106
G1 X112.072 Y126.236 E11.02584
G1 X111.301 Y126.317 E11.05108
G1 X110.503 Y126.332 E11.07702
G1 X109.681 Y126.285 E11.10382
G1 X108.829 Y126.177 E11.13175
G1 X107.947 Y126.009 E11.16096
G1 X107.033 Y125.784 E11.19161
G1 X105.793 Y125.418 E11.23366
G1 X106.002 Y125.810 F7800.000
G1 F1800.000 E10.23366
G92 E0
G1 X91.876 Y117.791 F7800.000
G1 E1.00000 F1800.000
G1 X91.212 Y118.520 E1.03208 F540.000
G1 X90.695 Y119.028 E1.05567
G1 X90.358 Y117.851 E1.09550
G1 X91.801 Y117.795 E1.14248
G1 F1800.000 E0.14248
G92 E0
G1 X88.121 Y109.744 F7800.000
G1 E1.00000 F1800.000
G1 X88.103 Y108.229 E1.04928 F540.000
G1 X88.755 Y108.364 E1.07094
G1 X89.789 Y108.519 E1.10493
G1 X89.859 Y108.899 E1.11752
G1 X89.170 Y109.261 E1.14284
G1 X88.189 Y109.712 E1.17797
G1 F1800.000 E0.17797
G92 E0
G1 X109.943 Y108.899 F7800.000
G1 E1.00000 F1800.000
G1 X110.013 Y108.519 E1.01258 F540.000
G1 X111.325 Y108.319 E1.05574
G1 X111.199 Y109.522 E1.09510
G1 X110.632 Y109.261 E1.11540
G1 X110.010 Y108.934 E1.13828
G1 X111.894 Y109.197 F7800.000
G1 X112.184 Y109.331 E1.14868 F378.000
G1 X113.140 Y109.707 E1.18211
G1 X114.093 Y110.015 E1.21469
G1 X115.095 Y110.142 E1.24756
G1 X115.644 Y110.177 E1.26544
G1 X116.197 Y110.187 E1.28345
G1 X116.754 Y110.170 E1.30157
G1 X117.312 Y110.124 E1.31980
G1 X117.873 Y110.050 E1.33820
G1 X118.433 Y109.943 E1.35676
G1 X118.993 Y109.803 E1.37554
G1 X119.553 Y109.630 E1.39459
G1 X120.001 Y109.461 E1.41019
G1 X121.426 Y109.786 E1.45773
G1 X122.033 Y111.046 E1.50324
G1 X121.363 Y112.437 E1.55348
G1 X120.928 Y113.100 E1.57926
G1 X120.451 Y113.753 E1.60558
G1 X119.936 Y114.380 E1.63196
G1 X119.376 Y114.973 E1.65851
G1 X118.767 Y115.530 E1.68535
G1 X118.104 Y116.044 E1.71267
G1 X117.375 Y116.515 E1.74089
G1 X116.991 Y116.728 E1.75518
G1 X116.162 Y117.117 E1.78498
G1 X115.256 Y117.446 E1.81634
